images/icon/receiving.svg

<svg xmlns="http://www.w3.org/2000/svg" width="1024" height="1024" viewBox="-24 -24 1084 1084" class="colorable-icon" data-export-recolorable-svg="true" overflow="visible"><g fill="none" stroke="black" stroke-width="45" stroke-linecap="round" stroke-linejoin="round"><path d="M 0.0,416.71 L 452.09,5.54" data-line="0" stroke-width="45.0"></path><path d="M 452.09,5.54 L 456.07,3.43" data-line="1" stroke-width="45.0"></path><path d="M 456.07,3.43 L 458.89,2.3" data-line="2" stroke-width="45.0"></path><path d="M 458.89,2.3 L 467.76,0.0" data-line="3" stroke-width="45.0"></path><path d="M 921.6,412.97 L 467.76,0.0" data-line="4" stroke-width="45.0"></path><path d="M 343.83,553.72 L 342.29,912.02" data-line="7" stroke-width="45.0"></path><path d="M 343.83000000265554,553.7200000008032 A 35.846317437590834,35.846317437590834 0 0,1 345.780000002495,548.6800000011887" data-line="8" stroke-width="45.0"></path><path d="M 345.78,548.68 L 347.17,546.38" data-line="9" stroke-width="45.0"></path><path d="M 347.17,546.38 L 348.65,544.43" data-line="10" stroke-width="45.0"></path><path d="M 348.65,544.43 L 350.52,542.4" data-line="11" stroke-width="45.0"></path><path d="M 350.52,542.4 L 352.35,540.76" data-line="12" stroke-width="45.0"></path><path d="M 352.35,540.76 L 354.51,539.23" data-line="13" stroke-width="45.0"></path><path d="M 354.5100000018999,539.2300000031732 A 29.633392163061274,29.633392163061274 0 0,1 358.8800000013936,537.0800000035409" data-line="14" stroke-width="45.0"></path><path d="M 358.88,537.08 L 361.04,536.41" data-line="15" stroke-width="45.0"></path><path d="M 361.04,536.41 L 363.46,535.92" data-line="16" stroke-width="45.0"></path><path d="M 363.46,535.92 L 562.86,535.97" data-line="17" stroke-width="45.0"></path><path d="M 562.859999999677,535.9700000018802 A 31.479837312238065,31.479837312238065 0 0,1 568.1199999993898,537.3500000017084" data-line="18" stroke-width="45.0"></path><path d="M 568.12,537.35 L 570.57,538.44" data-line="19" stroke-width="45.0"></path><path d="M 570.57,538.44 L 572.58,539.67" data-line="20" stroke-width="45.0"></path><path d="M 572.58,539.67 L 574.64,541.23" data-line="21" stroke-width="45.0"></path><path d="M 574.64,541.23 L 576.4,542.84" data-line="22" stroke-width="45.0"></path><path d="M 576.4,542.84 L 578.24,544.98" data-line="23" stroke-width="45.0"></path><path d="M 578.24,544.98 L 579.82,547.39" data-line="24" stroke-width="45.0"></path><path d="M 579.82,547.39 L 581.29,550.26" data-line="25" stroke-width="45.0"></path><path d="M 581.2899998053376,550.2600000822163 A 36.52041577603697,36.52041577603697 0 0,1 582.9899997948332,555.2700000534015" data-line="26" stroke-width="45.0"></path><path d="M 582.99,555.27 L 584.44,660.2" data-line="27" stroke-width="45.0"></path><path d="M 113.21,911.37 L 452.98,912.02" data-line="28" stroke-width="45.0"></path><path d="M 94.67,394.52 L 94.97,890.46" data-line="29" stroke-width="45.0"></path><path d="M 94.97,890.46 L 95.46,892.84" data-line="30" stroke-width="45.0"></path><path d="M 95.46,892.84 L 96.51,896.0" data-line="31" stroke-width="45.0"></path><path d="M 96.51,896.0 L 98.38,899.65" data-line="32" stroke-width="45.0"></path><path d="M 98.38,899.65 L 100.97,903.36" data-line="33" stroke-width="45.0"></path><path d="M 100.97,903.36 L 103.87,906.47" data-line="34" stroke-width="45.0"></path><path d="M 103.87,906.47 L 106.65,908.68" data-line="35" stroke-width="45.0"></path><path d="M 106.65,908.68 L 108.99,910.07" data-line="36" stroke-width="45.0"></path><path d="M 108.99,910.07 L 111.25,910.91" data-line="37" stroke-width="45.0"></path><path d="M 111.25,910.91 L 113.21,911.37" data-line="38" stroke-width="45.0"></path><path d="M 831.15,557.06 L 830.94,398.72" data-line="40" stroke-width="45.0"></path><path d="M 749.33,728.88 L 951.01,529.26" data-line="42" stroke-width="45.0"></path><path d="M 951.01,529.26 L 952.44,528.61" data-line="43" stroke-width="45.0"></path><path d="M 952.44,528.61 L 954.02,528.16" data-line="44" stroke-width="45.0"></path><path d="M 954.02,528.16 L 955.77,527.83" data-line="45" stroke-width="45.0"></path><path d="M 955.77,527.83 L 1022.11,528.85" data-line="46" stroke-width="45.0"></path><path d="M 813.47,795.81 L 1020.54,586.68" data-line="47" stroke-width="45.0"></path><path d="M 1021.6671079236003,586.8511699727283 A 191.6308078132393,191.6308078132393 0 0,0 1021.6091206874707,528.9270930978755" data-line="48" stroke-width="45.0"></path><path d="M 812.3049818195923,796.3798159519109 A 158.21469085990591,158.21469085990591 0 1,1 749.3208764267488,728.8957934280897" data-line="49" stroke-width="45.0"></path><circle cx="669.7349460541992" cy="866.2555163946737" r="56.46290883102187" data-line="55" stroke-width="45.0"></circle><path d="M 713.71,901.77 L 715.66,899.5" data-line="56" stroke-width="45.0"></path></g></svg>

<svg xmlns="http://www.w3.org/2000/svg" width="1024" height="1024" class="colorable-icon" overflow="visible" viewBox="-24 -24 1084 1084"><g fill="none" stroke="#000" stroke-linecap="round" stroke-linejoin="round" stroke-width="45"><path d="M0 416.71 452.09 5.54m0 0 3.98-2.11m0 0 2.82-1.13m0 0 8.87-2.3M921.6 412.97 467.76 0M343.83 553.72l-1.54 358.3m1.54-358.3a36 36 0 0 1 1.95-5.04m0 0 1.39-2.3m0 0 1.48-1.95m0 0 1.87-2.03m0 0 1.83-1.64m0 0 2.16-1.53m0 0a29.6 29.6 0 0 1 4.37-2.15m0 0 2.16-.67m0 0 2.42-.49m0 0 199.4.05m0 0a31.5 31.5 0 0 1 5.26 1.38m0 0 2.45 1.09m0 0 2.01 1.23m0 0 2.06 1.56m0 0 1.76 1.61m0 0 1.84 2.14m0 0 1.58 2.41m0 0 1.47 2.87m0 0a36.5 36.5 0 0 1 1.7 5.01m0 0 1.45 104.93M113.21 911.37l339.77.65M94.67 394.52l.3 495.94m0 0 .49 2.38m0 0 1.05 3.16m0 0 1.87 3.65m0 0 2.59 3.71m0 0 2.9 3.11m0 0 2.78 2.21m0 0 2.34 1.39m0 0 2.26.84m0 0 1.96.46m717.94-354.31-.21-158.34m-81.61 330.16 201.68-199.62m0 0 1.43-.65m0 0 1.58-.45m0 0 1.75-.33m0 0 66.34 1.02M813.47 795.81l207.07-209.13m1.127.171a191.6 191.6 0 0 0-.058-57.924M812.305 796.38a158.215 158.215 0 1 1-62.984-67.484"/><circle cx="669.735" cy="866.256" r="56.463"/><path d="m713.71 901.77 1.95-2.27"/></g></svg>
